img/why-us/cup.svg

<svg width="16" height="16" viewBox="0 0 16 16" fill="none" xmlns="http://www.w3.org/2000/svg">
<path d="M8.09998 12.9C7.82664 12.9 7.59998 12.6733 7.59998 12.4V11C7.59998 10.7267 7.82664 10.5 8.09998 10.5C8.37331 10.5 8.59998 10.7267 8.59998 11V12.4C8.59998 12.6733 8.37331 12.9 8.09998 12.9Z" fill="#0F172A"/>
<path d="M11.9333 15.1667H4.26666V14.0001C4.26666 12.9867 5.08666 12.1667 6.1 12.1667H10.1C11.1133 12.1667 11.9333 12.9867 11.9333 14.0001V15.1667ZM5.26666 14.1667H10.9333V14.0001C10.9333 13.5401 10.56 13.1667 10.1 13.1667H6.1C5.64 13.1667 5.26666 13.5401 5.26666 14.0001V14.1667Z" fill="#0F172A"/>
<path d="M12.1 15.1667H4.09998C3.82664 15.1667 3.59998 14.9401 3.59998 14.6667C3.59998 14.3934 3.82664 14.1667 4.09998 14.1667H12.1C12.3733 14.1667 12.6 14.3934 12.6 14.6667C12.6 14.9401 12.3733 15.1667 12.1 15.1667Z" fill="#0F172A"/>
<path d="M12.2867 8.29329C12.1467 8.29329 12.0067 8.23329 11.9067 8.11996C11.78 7.97329 11.7467 7.76663 11.8267 7.59329C12.0533 7.07329 12.1667 6.51996 12.1667 5.93996V3.93996C12.1667 3.70662 12.1267 3.47996 12.0467 3.23996C12.04 3.21996 12.0333 3.19329 12.0267 3.16662C12.0067 3.06662 12 2.96662 12 2.87329C12 2.59996 12.2267 2.37329 12.5 2.37329H12.9C14.0933 2.37329 15.0667 3.37329 15.0667 4.60662C15.0667 5.62662 14.6467 6.63329 13.92 7.35996C13.9067 7.37329 13.8667 7.40662 13.86 7.41329C13.4667 7.73996 13.02 8.10663 12.42 8.27329C12.3733 8.28663 12.3333 8.29329 12.2867 8.29329ZM13.12 3.39329C13.1533 3.57329 13.1667 3.75996 13.1667 3.93996V5.93996C13.1667 6.21329 13.1467 6.47329 13.1067 6.73996C13.1467 6.70662 13.18 6.67996 13.22 6.64663C13.7533 6.11329 14.0667 5.36662 14.0667 4.60662C14.0667 4.00662 13.66 3.49996 13.12 3.39329Z" fill="#0F172A"/>
<path d="M3.72002 8.26657C3.66668 8.26657 3.62002 8.2599 3.56668 8.2399C3.02002 8.06657 2.50668 7.74657 2.08002 7.3199C1.31335 6.47324 0.93335 5.54657 0.93335 4.56657C0.93335 3.35324 1.88668 2.3999 3.10002 2.3999H3.53335C3.70002 2.3999 3.86002 2.48657 3.95335 2.62657C4.04668 2.76657 4.06002 2.94657 3.99335 3.0999C3.88668 3.3399 3.83335 3.61324 3.83335 3.8999V5.8999C3.83335 6.47324 3.94668 7.03324 4.18002 7.56657C4.26002 7.74657 4.22002 7.95324 4.09335 8.0999C3.99335 8.20657 3.86002 8.26657 3.72002 8.26657ZM2.86668 3.4199C2.32668 3.52657 1.93335 3.99324 1.93335 4.56657C1.93335 5.29324 2.22668 5.99324 2.80668 6.63324C2.83335 6.66657 2.86668 6.69324 2.90002 6.7199C2.85335 6.44657 2.83335 6.17324 2.83335 5.8999V3.8999C2.83335 3.7399 2.84668 3.5799 2.86668 3.4199Z" fill="#0F172A"/>
<path d="M7.99998 11.1666C5.15331 11.1666 2.83331 8.84659 2.83331 5.99992V3.99992C2.83331 2.25325 4.25331 0.833252 5.99998 0.833252H9.99998C11.7466 0.833252 13.1666 2.25325 13.1666 3.99992V5.99992C13.1666 8.84659 10.8466 11.1666 7.99998 11.1666ZM5.99998 1.83325C4.80665 1.83325 3.83331 2.80659 3.83331 3.99992V5.99992C3.83331 8.29992 5.69998 10.1666 7.99998 10.1666C10.3 10.1666 12.1666 8.29992 12.1666 5.99992V3.99992C12.1666 2.80659 11.1933 1.83325 9.99998 1.83325H5.99998Z" fill="#0F172A"/>
</svg>

<svg xmlns="http://www.w3.org/2000/svg" width="16" height="16" fill="none"><path fill="#0F172A" d="M8.1 12.9a.504.504 0 0 1-.5-.5V11c0-.273.227-.5.5-.5s.5.227.5.5v1.4c0 .273-.227.5-.5.5Z"/><path fill="#0F172A" d="M11.933 15.167H4.267V14c0-1.013.82-1.833 1.833-1.833h4c1.013 0 1.833.82 1.833 1.833v1.167Zm-6.666-1h5.666V14a.834.834 0 0 0-.833-.833h-4a.834.834 0 0 0-.833.833v.167Z"/><path fill="#0F172A" d="M12.1 15.167h-8a.504.504 0 0 1-.5-.5c0-.274.227-.5.5-.5h8c.273 0 .5.226.5.5 0 .273-.227.5-.5.5ZM12.287 8.293c-.14 0-.28-.06-.38-.173a.493.493 0 0 1-.08-.527c.226-.52.34-1.073.34-1.653v-2c0-.233-.04-.46-.12-.7a1.037 1.037 0 0 1-.02-.073A1.5 1.5 0 0 1 12 2.873c0-.273.227-.5.5-.5h.4c1.193 0 2.167 1 2.167 2.234 0 1.02-.42 2.026-1.147 2.753-.013.013-.053.047-.06.053-.393.327-.84.694-1.44.86a.462.462 0 0 1-.133.02Zm.833-4.9c.033.18.047.367.047.547v2c0 .273-.02.533-.06.8l.113-.093c.533-.534.847-1.28.847-2.04 0-.6-.407-1.107-.947-1.214ZM3.72 8.267a.413.413 0 0 1-.153-.027 3.709 3.709 0 0 1-1.487-.92C1.313 6.473.933 5.547.933 4.567.933 3.353 1.887 2.4 3.1 2.4h.433a.499.499 0 0 1 .46.7 1.97 1.97 0 0 0-.16.8v2c0 .573.114 1.133.347 1.667.08.18.04.386-.087.533a.511.511 0 0 1-.373.167ZM2.867 3.42c-.54.107-.934.573-.934 1.147 0 .726.294 1.426.874 2.066.026.034.06.06.093.087a4.859 4.859 0 0 1-.067-.82v-2c0-.16.014-.32.034-.48Z"/><path fill="#0F172A" d="M8 11.167A5.175 5.175 0 0 1 2.833 6V4A3.17 3.17 0 0 1 6 .833h4A3.17 3.17 0 0 1 13.167 4v2A5.175 5.175 0 0 1 8 11.167ZM6 1.833A2.17 2.17 0 0 0 3.833 4v2c0 2.3 1.867 4.167 4.167 4.167S12.167 8.3 12.167 6V4A2.17 2.17 0 0 0 10 1.833H6Z"/></svg>
